X: 11
T: El Harahat [Bm]
M: 4/4
L: 1/8
K: Bm
|: "A"e2e2 | cB BA | cB BA | "Bm"B3 z :: "A"ee ed/d/ | fe e2 | cB cA | "Bm"B3 z :|
%%sep 2 1 500
